X:987
T:An dro 2
R:Reel
O:Brittany
S:From Jeff
Z:Transcription, chords:Mike Long
M:C|
L:1/8
K:D
"Bm"B2f2 f2f2|"A"e2d2 c2dc|"Bm"B2f2 f2f2|"A"e2d2 c3c:|
|:"Bm"BcdB "A"c2cd|"A"e2fe "Bm"d2c2|"Bm"BcdB "A"c2ed|"A"c2d2 "Bm"B3B:|
